src/raw/door/icon_32.svg

<svg width="32" height="32" viewBox="0 0 32 32" fill="none" xmlns="http://www.w3.org/2000/svg">
<path d="M21.3994 4H27.3333C27.8637 4 28.3724 4.21071 28.7475 4.58579C29.1226 4.96086 29.3333 5.46957 29.3333 6V26C29.3333 26.5304 29.1226 27.0391 28.7475 27.4142C28.3724 27.7893 27.8637 28 27.3333 28H21.3994" stroke="#71717A" stroke-width="1.5" stroke-linecap="round" stroke-linejoin="round"/>
<path d="M16.138 30.6568L3.56655 28.9803C3.31688 28.9473 3.08837 28.8312 2.92309 28.6535C2.7578 28.4758 2.66686 28.2483 2.66699 28.0129V5.2074C2.6668 4.98349 2.74894 4.7663 2.89971 4.59213C3.05047 4.41795 3.26072 4.29736 3.49531 4.25048L16.0667 1.35498C16.2195 1.32445 16.3777 1.32621 16.5297 1.36013C16.6817 1.39405 16.8236 1.45927 16.9451 1.55102C17.0665 1.64277 17.1645 1.75871 17.2317 1.89037C17.299 2.02202 17.3338 2.16604 17.3337 2.31189V29.6895C17.3336 29.8295 17.3012 29.9679 17.2389 30.0953C17.1765 30.2226 17.0856 30.336 16.9722 30.4277C16.8589 30.5194 16.7257 30.5873 16.5818 30.6269C16.4378 30.6664 16.2865 30.6766 16.138 30.6568Z" stroke="#71717A" stroke-width="1.5" stroke-linecap="round" stroke-linejoin="round"/>
<path d="M11.334 16H13.334" stroke="#71717A" stroke-width="1.5" stroke-linecap="round" stroke-linejoin="round"/>
</svg>

<svg xmlns="http://www.w3.org/2000/svg" width="32" height="32" fill="none"><path stroke="#71717A" stroke-linecap="round" stroke-linejoin="round" stroke-width="2" d="M21.4 4h5.934a2 2 0 0 1 2 2v20a2 2 0 0 1-2 2H21.4M16.138 30.657 3.567 28.98a1.069 1.069 0 0 1-.644-.327.94.94 0 0 1-.256-.64V5.207c0-.224.082-.44.233-.615.15-.174.36-.295.595-.342l12.572-2.895a1.12 1.12 0 0 1 .463.005c.152.034.294.1.415.191.122.092.22.208.287.34a.924.924 0 0 1 .102.42V29.69c0 .14-.033.279-.095.406a.986.986 0 0 1-.267.333 1.07 1.07 0 0 1-.39.199 1.12 1.12 0 0 1-.444.03ZM11.334 16h2"/></svg>
